src/Pure/16/symbolic/actions/builder-sdk-symbolic.svg

<?xml version="1.0" encoding="UTF-8" standalone="no"?>
<svg
   width="16px"
   height="16px"
   version="1.1"
   viewBox="0 0 16 16"
   id="svg2"
   sodipodi:docname="builder-sdk-symbolic.svg"
   inkscape:version="1.4.2 (ebf0e940d0, 2025-05-08)"
   xmlns:inkscape="http://www.inkscape.org/namespaces/inkscape"
   xmlns:sodipodi="http://sodipodi.sourceforge.net/DTD/sodipodi-0.dtd"
   xmlns="http://www.w3.org/2000/svg"
   xmlns:svg="http://www.w3.org/2000/svg">
  <defs
      id="defs2">
      <style id="current-color-scheme" type="text/css">
          .ColorScheme-Text { color:#363636; }
      </style>
  </defs>
  <sodipodi:namedview
     id="namedview2"
     pagecolor="#ffffff"
     bordercolor="#000000"
     borderopacity="0.25"
     inkscape:showpageshadow="2"
     inkscape:pageopacity="0.0"
     inkscape:pagecheckerboard="0"
     inkscape:deskcolor="#d1d1d1"
     inkscape:zoom="49.6875"
     inkscape:cx="8"
     inkscape:cy="8"
     inkscape:window-width="1920"
     inkscape:window-height="1010"
     inkscape:window-x="0"
     inkscape:window-y="0"
     inkscape:window-maximized="1"
     inkscape:current-layer="svg2" />
  <path
     id="path1"
     style="fill:currentColor"
     class="ColorScheme-Text"
     d="M 8 -0.072265625 C 7.74438 -0.072265625 7.4888188 0.02678625 7.2929688 0.22265625 L 0.22265625 7.2929688 C -0.16908375 7.6847088 -0.16908375 8.3153313 0.22265625 8.7070312 L 7.2929688 15.777344 C 7.6847087 16.169084 8.3153312 16.169084 8.7070312 15.777344 L 15.777344 8.7070312 C 16.169084 8.3152912 16.169084 7.6846687 15.777344 7.2929688 L 8.7070312 0.22265625 C 8.5111613 0.02678625 8.25562 -0.072265625 8 -0.072265625 z M 8 0.9296875 L 15.070312 8 L 8 15.070312 L 0.9296875 8 L 8 0.9296875 z M 7.7539062 3.7578125 A 4 3 45 0 0 5.8789062 4.4648438 C 5.4871662 4.8565838 5.4871662 5.4872062 5.8789062 5.8789062 L 7.6464844 7.6464844 L 4.8183594 10.474609 L 5.5253906 11.181641 L 8.3535156 8.3535156 L 10.121094 10.121094 C 10.512834 10.512834 11.143456 10.512834 11.535156 10.121094 L 12.949219 8.7070312 C 13.340959 8.3152912 13.340959 7.6846687 12.949219 7.2929688 L 10.828125 5.171875 A 4 3 45 0 0 7.7539062 3.7578125 z M 7.5761719 4.7480469 A 3 2 45 0 1 10.121094 5.8789062 L 12.242188 8 L 10.828125 9.4140625 L 6.5859375 5.171875 A 3 2 45 0 1 7.5761719 4.7480469 z " />
</svg>

<svg width="16px" height="16px" version="1.1" viewBox="0 0 16 16" xmlns="http://www.w3.org/2000/svg">
 <path d="m8.7071 0.22183c-0.39174-0.39174-1.0225-0.39174-1.4142 0l-7.0711 7.0711c-0.39174 0.39174-0.39174 1.0225 0 1.4142l7.0711 7.0711c0.39174 0.39174 1.0225 0.39174 1.4142 0l7.0711-7.0711c0.39174-0.39174 0.39174-1.0225 0-1.4142zm-0.70711 0.70711 7.0711 7.0711-7.0711 7.0711-7.0711-7.0711z" fill="#363636"/>
 <path d="m10.828 5.1716a4 3 45 0 0-4.9497-0.70711c-0.39174 0.39174-0.39174 1.0225 0 1.4142l1.7678 1.7678-2.8284 2.8284 0.70711 0.70711 2.8284-2.8284 1.7678 1.7678c0.39174 0.39174 1.0225 0.39174 1.4142 0l1.4142-1.4142c0.39174-0.39174 0.39174-1.0225 0-1.4142zm-0.70711 0.70711 2.1213 2.1213-1.4142 1.4142-4.2426-4.2426a3 2 45 0 1 3.5355 0.70711z" fill="#363636"/>
</svg>
